(Exported by FreeCAD)
(Post Processor: grbl_post)
(Output Time:2018-03-23 11:22:52.422785)
(begin preamble)
G17 G90
G21
(begin operation: Default Tool)
(Path: Default Tool)
(Default Tool)
(begin toolchange)
; M6 T1.0
M3 S10000.0000
(finish operation: Default Tool)
(begin operation: Profile_Faces)
(Path: Profile_Faces)
(Profile_Faces)
(Compensated Tool Path. Diameter: 3.0)
G0 Z6.0000
G0 X61.7038 Y17.2038
G0 Z4.0000
G1 X61.7038 Y17.2038 Z-1.5000 F150.00
G3 X59.9017 Y16.0557 Z-1.5000 I-0.7738 J-0.7738 F500.00
G3 X61.9583 Y16.8043 Z-1.5000 I1.0283 J0.3743 F500.00
G3 X61.7038 Y17.2038 Z-1.5000 I-1.0283 J-0.3743 F500.00
G1 X61.7038 Y17.2038 Z-4.0000 F150.00
G3 X59.9017 Y16.0557 Z-4.0000 I-0.7738 J-0.7738 F500.00
G3 X61.9583 Y16.8043 Z-4.0000 I1.0283 J0.3743 F500.00
G3 X61.7038 Y17.2038 Z-4.0000 I-1.0283 J-0.3743 F500.00
G1 X61.7038 Y17.2038 Z-5.0000 F150.00
G3 X59.9017 Y16.0557 Z-5.0000 I-0.7738 J-0.7738 F500.00
G3 X61.9583 Y16.8043 Z-5.0000 I1.0283 J0.3743 F500.00
G3 X61.7038 Y17.2038 Z-5.0000 I-1.0283 J-0.3743 F500.00
G0 Z6.0000
G0 X69.0649 Y24.5649
G0 Z4.0000
G1 X69.0649 Y24.5649 Z-1.5000 F150.00
G3 X68.9541 Y24.5794 Z-1.5000 I-0.0649 J-0.0649 F500.00
G3 X68.9206 Y24.4541 Z-1.5000 I0.0459 J-0.0794 F500.00
G3 X69.0459 Y24.4206 Z-1.5000 I0.0794 J0.0459 F500.00
G3 X69.0649 Y24.5649 Z-1.5000 I-0.0459 J0.0794 F500.00
G1 X69.0649 Y24.5649 Z-4.0000 F150.00
G3 X68.9541 Y24.5794 Z-4.0000 I-0.0649 J-0.0649 F500.00
G3 X68.9206 Y24.4541 Z-4.0000 I0.0459 J-0.0794 F500.00
G3 X69.0459 Y24.4206 Z-4.0000 I0.0794 J0.0459 F500.00
G3 X69.0649 Y24.5649 Z-4.0000 I-0.0459 J0.0794 F500.00
G1 X69.0649 Y24.5649 Z-5.0000 F150.00
G3 X68.9541 Y24.5794 Z-5.0000 I-0.0649 J-0.0649 F500.00
G3 X68.9206 Y24.4541 Z-5.0000 I0.0459 J-0.0794 F500.00
G3 X69.0459 Y24.4206 Z-5.0000 I0.0794 J0.0459 F500.00
G3 X69.0649 Y24.5649 Z-5.0000 I-0.0459 J0.0794 F500.00
G0 Z6.0000
G0 X77.9706 Y33.4499
G0 Z4.0000
G1 X77.9706 Y33.4499 Z-1.5000 F150.00
G2 X75.8994 Y36.6011 Z-1.5000 I6.5201 J6.5416 F500.00
G3 X73.6690 Y37.6845 Z-1.5000 I-1.6218 J-0.5012 F500.00
G3 X73.7716 Y37.4976 Z-1.5000 I0.0929 J-0.0706 F500.00
G2 X75.6072 Y36.6537 Z-1.5000 I0.4433 J-1.4542 F500.00
G3 X81.1537 Y31.1072 Z-1.5000 I8.9154 J3.3689 F500.00
G2 X82.0037 Y29.2235 Z-1.5000 I-0.7056 J-1.4521 F500.00
G3 X82.2344 Y29.2491 Z-1.5000 I0.1122 J0.0413 F500.00
G3 X82.2226 Y30.2568 Z-1.5000 I-1.6582 J0.4844 F500.00
G3 X81.0941 Y31.4027 Z-1.5000 I-1.7037 J-0.5491 F500.00
G2 X77.9706 Y33.4499 Z-1.5000 I3.3966 J8.5888 F500.00
G1 X77.9706 Y33.4499 Z-4.0000 F150.00
G2 X75.8994 Y36.6011 Z-4.0000 I6.5201 J6.5416 F500.00
G3 X73.6690 Y37.6845 Z-4.0000 I-1.6218 J-0.5012 F500.00
G3 X73.7716 Y37.4976 Z-4.0000 I0.0929 J-0.0706 F500.00
G2 X75.6072 Y36.6537 Z-4.0000 I0.4433 J-1.4542 F500.00
G3 X81.1537 Y31.1072 Z-4.0000 I8.9154 J3.3689 F500.00
G2 X82.0037 Y29.2235 Z-4.0000 I-0.7056 J-1.4521 F500.00
G3 X82.2344 Y29.2491 Z-4.0000 I0.1122 J0.0413 F500.00
G3 X82.2226 Y30.2568 Z-4.0000 I-1.6582 J0.4844 F500.00
G3 X81.0941 Y31.4027 Z-4.0000 I-1.7037 J-0.5491 F500.00
G2 X77.9706 Y33.4499 Z-4.0000 I3.3966 J8.5888 F500.00
G1 X77.9706 Y33.4499 Z-5.0000 F150.00
G2 X75.8994 Y36.6011 Z-5.0000 I6.5201 J6.5416 F500.00
G3 X73.6690 Y37.6845 Z-5.0000 I-1.6218 J-0.5012 F500.00
G3 X73.7716 Y37.4976 Z-5.0000 I0.0929 J-0.0706 F500.00
G2 X75.6072 Y36.6537 Z-5.0000 I0.4433 J-1.4542 F500.00
G3 X81.1537 Y31.1072 Z-5.0000 I8.9154 J3.3689 F500.00
G2 X82.0037 Y29.2235 Z-5.0000 I-0.7056 J-1.4521 F500.00
G3 X82.2344 Y29.2491 Z-5.0000 I0.1122 J0.0413 F500.00
G3 X82.2226 Y30.2568 Z-5.0000 I-1.6582 J0.4844 F500.00
G3 X81.0941 Y31.4027 Z-5.0000 I-1.7037 J-0.5491 F500.00
G2 X77.9706 Y33.4499 Z-5.0000 I3.3966 J8.5888 F500.00
G0 Z6.0000
G0 X95.0948 Y25.0496
G0 Z4.0000
G1 X95.0948 Y25.0496 Z-1.5000 F150.00
G3 X92.1977 Y25.3512 Z-1.5000 I-1.6598 J-1.8786 F500.00
G2 X76.7999 Y25.3522 Z-1.5000 I-7.6979 J14.6412 F500.00
G3 X73.3787 Y24.3768 Z-1.5000 I-1.2342 J-2.1587 F500.00
G3 X74.2071 Y23.8788 Z-1.5000 I0.4637 J-0.1666 F500.00
G2 X76.2200 Y24.5252 Z-1.5000 I1.3460 J-0.7342 F500.00
G3 X86.6387 Y22.5815 Z-1.5000 I8.2805 J15.4906 F500.00
G3 X92.7800 Y24.5252 Z-1.5000 I-2.1478 J17.4605 F500.00
G2 X94.7929 Y23.8788 Z-1.5000 I0.6639 J-1.3902 F500.00
G3 X95.5705 Y24.4840 Z-1.5000 I0.3648 J0.3334 F500.00
G3 X95.0948 Y25.0496 Z-1.5000 I-2.1355 J-1.3130 F500.00
G1 X95.0948 Y25.0496 Z-4.0000 F150.00
G3 X92.1977 Y25.3512 Z-4.0000 I-1.6598 J-1.8786 F500.00
G2 X76.7999 Y25.3522 Z-4.0000 I-7.6979 J14.6412 F500.00
G3 X73.3787 Y24.3768 Z-4.0000 I-1.2342 J-2.1587 F500.00
G3 X74.2071 Y23.8788 Z-4.0000 I0.4637 J-0.1666 F500.00
G2 X76.2200 Y24.5252 Z-4.0000 I1.3460 J-0.7342 F500.00
G3 X86.6387 Y22.5815 Z-4.0000 I8.2805 J15.4906 F500.00
G3 X92.7800 Y24.5252 Z-4.0000 I-2.1478 J17.4605 F500.00
G2 X94.7929 Y23.8788 Z-4.0000 I0.6639 J-1.3902 F500.00
G3 X95.5705 Y24.4840 Z-4.0000 I0.3648 J0.3334 F500.00
G3 X95.0948 Y25.0496 Z-4.0000 I-2.1355 J-1.3130 F500.00
G1 X95.0948 Y25.0496 Z-5.0000 F150.00
G3 X92.1977 Y25.3512 Z-5.0000 I-1.6598 J-1.8786 F500.00
G2 X76.7999 Y25.3522 Z-5.0000 I-7.6979 J14.6412 F500.00
G3 X73.3787 Y24.3768 Z-5.0000 I-1.2342 J-2.1587 F500.00
G3 X74.2071 Y23.8788 Z-5.0000 I0.4637 J-0.1666 F500.00
G2 X76.2200 Y24.5252 Z-5.0000 I1.3460 J-0.7342 F500.00
G3 X86.6387 Y22.5815 Z-5.0000 I8.2805 J15.4906 F500.00
G3 X92.7800 Y24.5252 Z-5.0000 I-2.1478 J17.4605 F500.00
G2 X94.7929 Y23.8788 Z-5.0000 I0.6639 J-1.3902 F500.00
G3 X95.5705 Y24.4840 Z-5.0000 I0.3648 J0.3334 F500.00
G3 X95.0948 Y25.0496 Z-5.0000 I-2.1355 J-1.3130 F500.00
G0 Z6.0000
G0 X100.0649 Y55.5649
G0 Z4.0000
G1 X100.0649 Y55.5649 Z-1.5000 F150.00
G3 X99.9541 Y55.5794 Z-1.5000 I-0.0649 J-0.0649 F500.00
G3 X99.9206 Y55.4541 Z-1.5000 I0.0459 J-0.0794 F500.00
G3 X100.0459 Y55.4206 Z-1.5000 I0.0794 J0.0459 F500.00
G3 X100.0649 Y55.5649 Z-1.5000 I-0.0459 J0.0794 F500.00
G1 X100.0649 Y55.5649 Z-4.0000 F150.00
G3 X99.9541 Y55.5794 Z-4.0000 I-0.0649 J-0.0649 F500.00
G3 X99.9206 Y55.4541 Z-4.0000 I0.0459 J-0.0794 F500.00
G3 X100.0459 Y55.4206 Z-4.0000 I0.0794 J0.0459 F500.00
G3 X100.0649 Y55.5649 Z-4.0000 I-0.0459 J0.0794 F500.00
G1 X100.0649 Y55.5649 Z-5.0000 F150.00
G3 X99.9541 Y55.5794 Z-5.0000 I-0.0649 J-0.0649 F500.00
G3 X99.9206 Y55.4541 Z-5.0000 I0.0459 J-0.0794 F500.00
G3 X100.0459 Y55.4206 Z-5.0000 I0.0794 J0.0459 F500.00
G3 X100.0649 Y55.5649 Z-5.0000 I-0.0459 J0.0794 F500.00
G0 Z6.0000
G0 X100.7636 Y50.7912
G0 Z4.0000
G1 X100.7636 Y50.7912 Z-1.5000 F150.00
G3 X100.0160 Y51.0705 Z-1.5000 I-0.4758 J-0.1335 F500.00
G3 X99.1488 Y47.6977 Z-1.5000 I1.3130 J-2.1355 F500.00
G2 X99.1478 Y32.2999 Z-1.5000 I-14.6412 J-7.6979 F500.00
G3 X100.1232 Y28.8787 Z-1.5000 I2.1587 J-1.2342 F500.00
G3 X100.4999 Y28.8967 Z-1.5000 I0.1666 J0.4637 F500.00
G3 X100.6212 Y29.7071 Z-1.5000 I-0.2101 J0.4457 F500.00
G2 X99.9748 Y31.7200 Z-1.5000 I0.7342 J1.3460 F500.00
G3 X99.9748 Y48.2800 Z-1.5000 I-15.4872 J8.2800 F500.00
G2 X100.6212 Y50.2929 Z-1.5000 I1.3902 J0.6639 F500.00
G3 X100.7636 Y50.7912 Z-1.5000 I-0.3334 J0.3648 F500.00
G1 X100.7636 Y50.7912 Z-4.0000 F150.00
G3 X100.0160 Y51.0705 Z-4.0000 I-0.4758 J-0.1335 F500.00
G3 X99.1488 Y47.6977 Z-4.0000 I1.3130 J-2.1355 F500.00
G2 X99.1478 Y32.2999 Z-4.0000 I-14.6412 J-7.6979 F500.00
G3 X100.1232 Y28.8787 Z-4.0000 I2.1587 J-1.2342 F500.00
G3 X100.4999 Y28.8967 Z-4.0000 I0.1666 J0.4637 F500.00
G3 X100.6212 Y29.7071 Z-4.0000 I-0.2101 J0.4457 F500.00
G2 X99.9748 Y31.7200 Z-4.0000 I0.7342 J1.3460 F500.00
G3 X99.9748 Y48.2800 Z-4.0000 I-15.4872 J8.2800 F500.00
G2 X100.6212 Y50.2929 Z-4.0000 I1.3902 J0.6639 F500.00
G3 X100.7636 Y50.7912 Z-4.0000 I-0.3334 J0.3648 F500.00
G1 X100.7636 Y50.7912 Z-5.0000 F150.00
G3 X100.0160 Y51.0705 Z-5.0000 I-0.4758 J-0.1335 F500.00
G3 X99.1488 Y47.6977 Z-5.0000 I1.3130 J-2.1355 F500.00
G2 X99.1478 Y32.2999 Z-5.0000 I-14.6412 J-7.6979 F500.00
G3 X100.1232 Y28.8787 Z-5.0000 I2.1587 J-1.2342 F500.00
G3 X100.4999 Y28.8967 Z-5.0000 I0.1666 J0.4637 F500.00
G3 X100.6212 Y29.7071 Z-5.0000 I-0.2101 J0.4457 F500.00
G2 X99.9748 Y31.7200 Z-5.0000 I0.7342 J1.3460 F500.00
G3 X99.9748 Y48.2800 Z-5.0000 I-15.4872 J8.2800 F500.00
G2 X100.6212 Y50.2929 Z-5.0000 I1.3902 J0.6639 F500.00
G3 X100.7636 Y50.7912 Z-5.0000 I-0.3334 J0.3648 F500.00
G0 Z6.0000
G0 X95.2978 Y37.7151
G0 Z4.0000
G1 X95.2978 Y37.7151 Z-1.5000 F150.00
G3 X95.2509 Y37.7344 Z-1.5000 I-0.0734 J-0.1116 F500.00
G3 X93.0973 Y36.5941 Z-1.5000 I-0.4822 J-1.6931 F500.00
G2 X87.8989 Y31.3994 Z-1.5000 I-8.5888 J3.3966 F500.00
G3 X86.8155 Y29.1690 Z-1.5000 I0.5012 J-1.6218 F500.00
G3 X87.0024 Y29.2716 Z-1.5000 I0.0706 J0.0929 F500.00
G2 X87.8463 Y31.1072 Z-1.5000 I1.4542 J0.4433 F500.00
G3 X93.3928 Y36.6537 Z-1.5000 I-3.3689 J8.9154 F500.00
G2 X95.2765 Y37.5037 Z-1.5000 I1.4521 J-0.7056 F500.00
G3 X95.3437 Y37.6637 Z-1.5000 I-0.0385 J0.1102 F500.00
G3 X95.2978 Y37.7151 Z-1.5000 I-0.1192 J-0.0601 F500.00
G1 X95.2978 Y37.7151 Z-4.0000 F150.00
G3 X95.2509 Y37.7344 Z-4.0000 I-0.0734 J-0.1116 F500.00
G3 X93.0973 Y36.5941 Z-4.0000 I-0.4822 J-1.6931 F500.00
G2 X87.8989 Y31.3994 Z-4.0000 I-8.5888 J3.3966 F500.00
G3 X86.8155 Y29.1690 Z-4.0000 I0.5012 J-1.6218 F500.00
G3 X87.0024 Y29.2716 Z-4.0000 I0.0706 J0.0929 F500.00
G2 X87.8463 Y31.1072 Z-4.0000 I1.4542 J0.4433 F500.00
G3 X93.3928 Y36.6537 Z-4.0000 I-3.3689 J8.9154 F500.00
G2 X95.2765 Y37.5037 Z-4.0000 I1.4521 J-0.7056 F500.00
G3 X95.3437 Y37.6637 Z-4.0000 I-0.0385 J0.1102 F500.00
G3 X95.2978 Y37.7151 Z-4.0000 I-0.1192 J-0.0601 F500.00
G1 X95.2978 Y37.7151 Z-5.0000 F150.00
G3 X95.2509 Y37.7344 Z-5.0000 I-0.0734 J-0.1116 F500.00
G3 X93.0973 Y36.5941 Z-5.0000 I-0.4822 J-1.6931 F500.00
G2 X87.8989 Y31.3994 Z-5.0000 I-8.5888 J3.3966 F500.00
G3 X86.8155 Y29.1690 Z-5.0000 I0.5012 J-1.6218 F500.00
G3 X87.0024 Y29.2716 Z-5.0000 I0.0706 J0.0929 F500.00
G2 X87.8463 Y31.1072 Z-5.0000 I1.4542 J0.4433 F500.00
G3 X93.3928 Y36.6537 Z-5.0000 I-3.3689 J8.9154 F500.00
G2 X95.2765 Y37.5037 Z-5.0000 I1.4521 J-0.7056 F500.00
G3 X95.3437 Y37.6637 Z-5.0000 I-0.0385 J0.1102 F500.00
G3 X95.2978 Y37.7151 Z-5.0000 I-0.1192 J-0.0601 F500.00
G0 Z6.0000
G0 X88.0340 Y43.5340
G0 Z4.0000
G1 X88.0340 Y43.5340 Z-1.5000 F150.00
G3 X83.1629 Y44.8156 Z-1.5000 I-3.5340 J-3.5340 F500.00
G3 X85.8371 Y35.1844 Z-1.5000 I1.3371 J-4.8156 F500.00
G3 X88.0340 Y43.5340 Z-1.5000 I-1.3371 J4.8156 F500.00
G1 X88.0340 Y43.5340 Z-4.0000 F150.00
G3 X83.1629 Y44.8156 Z-4.0000 I-3.5340 J-3.5340 F500.00
G3 X85.8371 Y35.1844 Z-4.0000 I1.3371 J-4.8156 F500.00
G3 X88.0340 Y43.5340 Z-4.0000 I-1.3371 J4.8156 F500.00
G1 X88.0340 Y43.5340 Z-5.0000 F150.00
G3 X83.1629 Y44.8156 Z-5.0000 I-3.5340 J-3.5340 F500.00
G3 X85.8371 Y35.1844 Z-5.0000 I1.3371 J-4.8156 F500.00
G3 X88.0340 Y43.5340 Z-5.0000 I-1.3371 J4.8156 F500.00
G0 Z6.0000
G0 X82.1906 Y50.8150
G0 Z4.0000
G1 X82.1906 Y50.8150 Z-1.5000 F150.00
G3 X82.1845 Y50.8310 Z-1.5000 I-1.5907 J-0.5926 F500.00
G3 X81.9976 Y50.7284 Z-1.5000 I-0.0706 J-0.0929 F500.00
G2 X81.1537 Y48.8928 Z-1.5000 I-1.4542 J-0.4433 F500.00
G3 X75.6072 Y43.3463 Z-1.5000 I3.3689 J-8.9154 F500.00
G2 X73.7235 Y42.4963 Z-1.5000 I-1.4521 J0.7056 F500.00
G3 X73.7491 Y42.2656 Z-1.5000 I0.0413 J-0.1122 F500.00
G3 X74.7568 Y42.2774 Z-1.5000 I0.4844 J1.6582 F500.00
G3 X75.9027 Y43.4059 Z-1.5000 I-0.5491 J1.7037 F500.00
G2 X81.1011 Y48.6006 Z-1.5000 I8.5888 J-3.3966 F500.00
G3 X82.1906 Y50.8150 Z-1.5000 I-0.5012 J1.6218 F500.00
G1 X82.1906 Y50.8150 Z-4.0000 F150.00
G3 X82.1845 Y50.8310 Z-4.0000 I-1.5907 J-0.5926 F500.00
G3 X81.9976 Y50.7284 Z-4.0000 I-0.0706 J-0.0929 F500.00
G2 X81.1537 Y48.8928 Z-4.0000 I-1.4542 J-0.4433 F500.00
G3 X75.6072 Y43.3463 Z-4.0000 I3.3689 J-8.9154 F500.00
G2 X73.7235 Y42.4963 Z-4.0000 I-1.4521 J0.7056 F500.00
G3 X73.7491 Y42.2656 Z-4.0000 I0.0413 J-0.1122 F500.00
G3 X74.7568 Y42.2774 Z-4.0000 I0.4844 J1.6582 F500.00
G3 X75.9027 Y43.4059 Z-4.0000 I-0.5491 J1.7037 F500.00
G2 X81.1011 Y48.6006 Z-4.0000 I8.5888 J-3.3966 F500.00
G3 X82.1906 Y50.8150 Z-4.0000 I-0.5012 J1.6218 F500.00
G1 X82.1906 Y50.8150 Z-5.0000 F150.00
G3 X82.1845 Y50.8310 Z-5.0000 I-1.5907 J-0.5926 F500.00
G3 X81.9976 Y50.7284 Z-5.0000 I-0.0706 J-0.0929 F500.00
G2 X81.1537 Y48.8928 Z-5.0000 I-1.4542 J-0.4433 F500.00
G3 X75.6072 Y43.3463 Z-5.0000 I3.3689 J-8.9154 F500.00
G2 X73.7235 Y42.4963 Z-5.0000 I-1.4521 J0.7056 F500.00
G3 X73.7491 Y42.2656 Z-5.0000 I0.0413 J-0.1122 F500.00
G3 X74.7568 Y42.2774 Z-5.0000 I0.4844 J1.6582 F500.00
G3 X75.9027 Y43.4059 Z-5.0000 I-0.5491 J1.7037 F500.00
G2 X81.1011 Y48.6006 Z-5.0000 I8.5888 J-3.3966 F500.00
G3 X82.1906 Y50.8150 Z-5.0000 I-0.5012 J1.6218 F500.00
G0 Z6.0000
G0 X91.2167 Y46.7164
G0 Z4.0000
G1 X91.2167 Y46.7164 Z-1.5000 F150.00
G3 X87.8463 Y48.8928 Z-1.5000 I-6.7393 J-6.7390 F500.00
G2 X86.9963 Y50.7765 Z-1.5000 I0.7056 J1.4521 F500.00
G3 X86.7656 Y50.7509 Z-1.5000 I-0.1122 J-0.0413 F500.00
G3 X87.9059 Y48.5973 Z-1.5000 I1.6931 J-0.4822 F500.00
G2 X93.1006 Y43.3989 Z-1.5000 I-3.3966 J-8.5888 F500.00
G3 X95.2509 Y42.2656 Z-1.5000 I1.6680 J0.5581 F500.00
G3 X95.2284 Y42.5024 Z-1.5000 I-0.0147 J0.1181 F500.00
G2 X93.3928 Y43.3463 Z-1.5000 I-0.4433 J1.4542 F500.00
G3 X91.2167 Y46.7164 Z-1.5000 I-8.9154 J-3.3689 F500.00
G1 X91.2167 Y46.7164 Z-4.0000 F150.00
G3 X87.8463 Y48.8928 Z-4.0000 I-6.7393 J-6.7390 F500.00
G2 X86.9963 Y50.7765 Z-4.0000 I0.7056 J1.4521 F500.00
G3 X86.7656 Y50.7509 Z-4.0000 I-0.1122 J-0.0413 F500.00
G3 X87.9059 Y48.5973 Z-4.0000 I1.6931 J-0.4822 F500.00
G2 X93.1006 Y43.3989 Z-4.0000 I-3.3966 J-8.5888 F500.00
G3 X95.2509 Y42.2656 Z-4.0000 I1.6680 J0.5581 F500.00
G3 X95.2284 Y42.5024 Z-4.0000 I-0.0147 J0.1181 F500.00
G2 X93.3928 Y43.3463 Z-4.0000 I-0.4433 J1.4542 F500.00
G3 X91.2167 Y46.7164 Z-4.0000 I-8.9154 J-3.3689 F500.00
G1 X91.2167 Y46.7164 Z-5.0000 F150.00
G3 X87.8463 Y48.8928 Z-5.0000 I-6.7393 J-6.7390 F500.00
G2 X86.9963 Y50.7765 Z-5.0000 I0.7056 J1.4521 F500.00
G3 X86.7656 Y50.7509 Z-5.0000 I-0.1122 J-0.0413 F500.00
G3 X87.9059 Y48.5973 Z-5.0000 I1.6931 J-0.4822 F500.00
G2 X93.1006 Y43.3989 Z-5.0000 I-3.3966 J-8.5888 F500.00
G3 X95.2509 Y42.2656 Z-5.0000 I1.6680 J0.5581 F500.00
G3 X95.2284 Y42.5024 Z-5.0000 I-0.0147 J0.1181 F500.00
G2 X93.3928 Y43.3463 Z-5.0000 I-0.4433 J1.4542 F500.00
G3 X91.2167 Y46.7164 Z-5.0000 I-8.9154 J-3.3689 F500.00
G0 Z6.0000
G0 X95.2905 Y56.2643
G0 Z4.0000
G1 X95.2905 Y56.2643 Z-1.5000 F150.00
G3 X94.7929 Y56.1212 Z-1.5000 I-0.1329 J-0.4745 F500.00
G2 X92.7800 Y55.4748 Z-1.5000 I-1.3460 J0.7342 F500.00
G3 X76.2200 Y55.4748 Z-1.5000 I-8.2800 J-15.4872 F500.00
G2 X74.2071 Y56.1212 Z-1.5000 I-0.6639 J1.3902 F500.00
G3 X73.4295 Y55.5160 Z-1.5000 I-0.3648 J-0.3334 F500.00
G3 X76.0834 Y54.3800 Z-1.5000 I2.1268 J1.3005 F500.00
G3 X77.8167 Y55.1396 Z-1.5000 I-3.2190 J9.7016 F500.00
G2 X92.2001 Y54.6478 Z-1.5000 I6.6825 J-15.1352 F500.00
G3 X95.6213 Y55.6232 Z-1.5000 I1.2342 J2.1587 F500.00
G3 X95.2905 Y56.2643 Z-1.5000 I-0.4637 J0.1666 F500.00
G1 X95.2905 Y56.2643 Z-4.0000 F150.00
G3 X94.7929 Y56.1212 Z-4.0000 I-0.1329 J-0.4745 F500.00
G2 X92.7800 Y55.4748 Z-4.0000 I-1.3460 J0.7342 F500.00
G3 X76.2200 Y55.4748 Z-4.0000 I-8.2800 J-15.4872 F500.00
G2 X74.2071 Y56.1212 Z-4.0000 I-0.6639 J1.3902 F500.00
G3 X73.4295 Y55.5160 Z-4.0000 I-0.3648 J-0.3334 F500.00
G3 X76.0834 Y54.3800 Z-4.0000 I2.1268 J1.3005 F500.00
G3 X77.8167 Y55.1396 Z-4.0000 I-3.2190 J9.7016 F500.00
G2 X92.2001 Y54.6478 Z-4.0000 I6.6825 J-15.1352 F500.00
G3 X95.6213 Y55.6232 Z-4.0000 I1.2342 J2.1587 F500.00
G3 X95.2905 Y56.2643 Z-4.0000 I-0.4637 J0.1666 F500.00
G1 X95.2905 Y56.2643 Z-5.0000 F150.00
G3 X94.7929 Y56.1212 Z-5.0000 I-0.1329 J-0.4745 F500.00
G2 X92.7800 Y55.4748 Z-5.0000 I-1.3460 J0.7342 F500.00
G3 X76.2200 Y55.4748 Z-5.0000 I-8.2800 J-15.4872 F500.00
G2 X74.2071 Y56.1212 Z-5.0000 I-0.6639 J1.3902 F500.00
G3 X73.4295 Y55.5160 Z-5.0000 I-0.3648 J-0.3334 F500.00
G3 X76.0834 Y54.3800 Z-5.0000 I2.1268 J1.3005 F500.00
G3 X77.8167 Y55.1396 Z-5.0000 I-3.2190 J9.7016 F500.00
G2 X92.2001 Y54.6478 Z-5.0000 I6.6825 J-15.1352 F500.00
G3 X95.6213 Y55.6232 Z-5.0000 I1.2342 J2.1587 F500.00
G3 X95.2905 Y56.2643 Z-5.0000 I-0.4637 J0.1666 F500.00
G0 Z6.0000
G0 X100.0649 Y24.5649
G0 Z4.0000
G1 X100.0649 Y24.5649 Z-1.5000 F150.00
G3 X99.9541 Y24.5794 Z-1.5000 I-0.0649 J-0.0649 F500.00
G3 X99.9206 Y24.4541 Z-1.5000 I0.0459 J-0.0794 F500.00
G3 X100.0459 Y24.4206 Z-1.5000 I0.0794 J0.0459 F500.00
G3 X100.0649 Y24.5649 Z-1.5000 I-0.0459 J0.0794 F500.00
G1 X100.0649 Y24.5649 Z-4.0000 F150.00
G3 X99.9541 Y24.5794 Z-4.0000 I-0.0649 J-0.0649 F500.00
G3 X99.9206 Y24.4541 Z-4.0000 I0.0459 J-0.0794 F500.00
G3 X100.0459 Y24.4206 Z-4.0000 I0.0794 J0.0459 F500.00
G3 X100.0649 Y24.5649 Z-4.0000 I-0.0459 J0.0794 F500.00
G1 X100.0649 Y24.5649 Z-5.0000 F150.00
G3 X99.9541 Y24.5794 Z-5.0000 I-0.0649 J-0.0649 F500.00
G3 X99.9206 Y24.4541 Z-5.0000 I0.0459 J-0.0794 F500.00
G3 X100.0459 Y24.4206 Z-5.0000 I0.0794 J0.0459 F500.00
G3 X100.0649 Y24.5649 Z-5.0000 I-0.0459 J0.0794 F500.00
G0 Z6.0000
G0 X69.0649 Y55.5649
G0 Z4.0000
G1 X69.0649 Y55.5649 Z-1.5000 F150.00
G3 X68.9541 Y55.5794 Z-1.5000 I-0.0649 J-0.0649 F500.00
G3 X68.9206 Y55.4541 Z-1.5000 I0.0459 J-0.0794 F500.00
G3 X69.0459 Y55.4206 Z-1.5000 I0.0794 J0.0459 F500.00
G3 X69.0649 Y55.5649 Z-1.5000 I-0.0459 J0.0794 F500.00
G1 X69.0649 Y55.5649 Z-4.0000 F150.00
G3 X68.9541 Y55.5794 Z-4.0000 I-0.0649 J-0.0649 F500.00
G3 X68.9206 Y55.4541 Z-4.0000 I0.0459 J-0.0794 F500.00
G3 X69.0459 Y55.4206 Z-4.0000 I0.0794 J0.0459 F500.00
G3 X69.0649 Y55.5649 Z-4.0000 I-0.0459 J0.0794 F500.00
G1 X69.0649 Y55.5649 Z-5.0000 F150.00
G3 X68.9541 Y55.5794 Z-5.0000 I-0.0649 J-0.0649 F500.00
G3 X68.9206 Y55.4541 Z-5.0000 I0.0459 J-0.0794 F500.00
G3 X69.0459 Y55.4206 Z-5.0000 I0.0794 J0.0459 F500.00
G3 X69.0649 Y55.5649 Z-5.0000 I-0.0459 J0.0794 F500.00
G0 Z6.0000
G0 X69.5499 Y50.5887
G0 Z4.0000
G1 X69.5499 Y50.5887 Z-1.5000 F150.00
G3 X68.8768 Y51.1213 Z-1.5000 I-1.8564 J-1.6544 F500.00
G3 X68.3788 Y50.2929 Z-1.5000 I-0.1666 J-0.4637 F500.00
G2 X69.0252 Y48.2800 Z-1.5000 I-0.7342 J-1.3460 F500.00
G3 X69.0252 Y31.7200 Z-1.5000 I15.4872 J-8.2800 F500.00
G2 X68.3788 Y29.7071 Z-1.5000 I-1.3902 J-0.6639 F500.00
G3 X68.8768 Y28.8787 Z-1.5000 I0.3314 J-0.3647 F500.00
G3 X69.8512 Y32.3023 Z-1.5000 I-1.1836 J2.1873 F500.00
G2 X69.8522 Y47.7001 Z-1.5000 I14.6412 J7.6979 F500.00
G3 X69.5499 Y50.5887 Z-1.5000 I-2.1587 J1.2342 F500.00
G1 X69.5499 Y50.5887 Z-4.0000 F150.00
G3 X68.8768 Y51.1213 Z-4.0000 I-1.8564 J-1.6544 F500.00
G3 X68.3788 Y50.2929 Z-4.0000 I-0.1666 J-0.4637 F500.00
G2 X69.0252 Y48.2800 Z-4.0000 I-0.7342 J-1.3460 F500.00
G3 X69.0252 Y31.7200 Z-4.0000 I15.4872 J-8.2800 F500.00
G2 X68.3788 Y29.7071 Z-4.0000 I-1.3902 J-0.6639 F500.00
G3 X68.8768 Y28.8787 Z-4.0000 I0.3314 J-0.3647 F500.00
G3 X69.8512 Y32.3023 Z-4.0000 I-1.1836 J2.1873 F500.00
G2 X69.8522 Y47.7001 Z-4.0000 I14.6412 J7.6979 F500.00
G3 X69.5499 Y50.5887 Z-4.0000 I-2.1587 J1.2342 F500.00
G1 X69.5499 Y50.5887 Z-5.0000 F150.00
G3 X68.8768 Y51.1213 Z-5.0000 I-1.8564 J-1.6544 F500.00
G3 X68.3788 Y50.2929 Z-5.0000 I-0.1666 J-0.4637 F500.00
G2 X69.0252 Y48.2800 Z-5.0000 I-0.7342 J-1.3460 F500.00
G3 X69.0252 Y31.7200 Z-5.0000 I15.4872 J-8.2800 F500.00
G2 X68.3788 Y29.7071 Z-5.0000 I-1.3902 J-0.6639 F500.00
G3 X68.8768 Y28.8787 Z-5.0000 I0.3314 J-0.3647 F500.00
G3 X69.8512 Y32.3023 Z-5.0000 I-1.1836 J2.1873 F500.00
G2 X69.8522 Y47.7001 Z-5.0000 I14.6412 J7.6979 F500.00
G3 X69.5499 Y50.5887 Z-5.0000 I-2.1587 J1.2342 F500.00
G0 Z6.0000
G0 X108.8438 Y17.2038
G0 Z4.0000
G1 X108.8438 Y17.2038 Z-1.5000 F150.00
G3 X107.6957 Y17.4583 Z-1.5000 I-0.7738 J-0.7738 F500.00
G3 X108.4443 Y15.4017 Z-1.5000 I0.3743 J-1.0283 F500.00
G3 X108.8438 Y17.2038 Z-1.5000 I-0.3743 J1.0283 F500.00
G1 X108.8438 Y17.2038 Z-4.0000 F150.00
G3 X107.6957 Y17.4583 Z-4.0000 I-0.7738 J-0.7738 F500.00
G3 X108.4443 Y15.4017 Z-4.0000 I0.3743 J-1.0283 F500.00
G3 X108.8438 Y17.2038 Z-4.0000 I-0.3743 J1.0283 F500.00
G1 X108.8438 Y17.2038 Z-5.0000 F150.00
G3 X107.6957 Y17.4583 Z-5.0000 I-0.7738 J-0.7738 F500.00
G3 X108.4443 Y15.4017 Z-5.0000 I0.3743 J-1.0283 F500.00
G3 X108.8438 Y17.2038 Z-5.0000 I-0.3743 J1.0283 F500.00
G0 Z6.0000
G0 X47.1988 Y17.1988
G0 Z4.0000
G1 X47.1988 Y17.1988 Z-1.5000 F150.00
G3 X45.4761 Y17.6124 Z-1.5000 I-1.1988 J-1.1988 F500.00
G3 X46.5239 Y14.3876 Z-1.5000 I0.5239 J-1.6124 F500.00
G3 X47.1988 Y17.1988 Z-1.5000 I-0.5239 J1.6124 F500.00
G1 X47.1988 Y17.1988 Z-4.0000 F150.00
G3 X45.4761 Y17.6124 Z-4.0000 I-1.1988 J-1.1988 F500.00
G3 X46.5239 Y14.3876 Z-4.0000 I0.5239 J-1.6124 F500.00
G3 X47.1988 Y17.1988 Z-4.0000 I-0.5239 J1.6124 F500.00
G1 X47.1988 Y17.1988 Z-5.0000 F150.00
G3 X45.4761 Y17.6124 Z-5.0000 I-1.1988 J-1.1988 F500.00
G3 X46.5239 Y14.3876 Z-5.0000 I0.5239 J-1.6124 F500.00
G3 X47.1988 Y17.1988 Z-5.0000 I-0.5239 J1.6124 F500.00
G0 Z6.0000
G0 X47.1988 Y47.1988
G0 Z4.0000
G1 X47.1988 Y47.1988 Z-1.5000 F150.00
G3 X44.3876 Y45.4761 Z-1.5000 I-1.1988 J-1.1988 F500.00
G3 X47.6124 Y46.5239 Z-1.5000 I1.6124 J0.5239 F500.00
G3 X47.1988 Y47.1988 Z-1.5000 I-1.6124 J-0.5239 F500.00
G1 X47.1988 Y47.1988 Z-4.0000 F150.00
G3 X44.3876 Y45.4761 Z-4.0000 I-1.1988 J-1.1988 F500.00
G3 X47.6124 Y46.5239 Z-4.0000 I1.6124 J0.5239 F500.00
G3 X47.1988 Y47.1988 Z-4.0000 I-1.6124 J-0.5239 F500.00
G1 X47.1988 Y47.1988 Z-5.0000 F150.00
G3 X44.3876 Y45.4761 Z-5.0000 I-1.1988 J-1.1988 F500.00
G3 X47.6124 Y46.5239 Z-5.0000 I1.6124 J0.5239 F500.00
G3 X47.1988 Y47.1988 Z-5.0000 I-1.6124 J-0.5239 F500.00
G0 Z6.0000
G0 X154.1988 Y17.1988
G0 Z4.0000
G1 X154.1988 Y17.1988 Z-1.5000 F150.00
G3 X152.4761 Y17.6124 Z-1.5000 I-1.1988 J-1.1988 F500.00
G3 X153.5239 Y14.3876 Z-1.5000 I0.5239 J-1.6124 F500.00
G3 X154.1988 Y17.1988 Z-1.5000 I-0.5239 J1.6124 F500.00
G1 X154.1988 Y17.1988 Z-4.0000 F150.00
G3 X152.4761 Y17.6124 Z-4.0000 I-1.1988 J-1.1988 F500.00
G3 X153.5239 Y14.3876 Z-4.0000 I0.5239 J-1.6124 F500.00
G3 X154.1988 Y17.1988 Z-4.0000 I-0.5239 J1.6124 F500.00
G1 X154.1988 Y17.1988 Z-5.0000 F150.00
G3 X152.4761 Y17.6124 Z-5.0000 I-1.1988 J-1.1988 F500.00
G3 X153.5239 Y14.3876 Z-5.0000 I0.5239 J-1.6124 F500.00
G3 X154.1988 Y17.1988 Z-5.0000 I-0.5239 J1.6124 F500.00
G0 Z6.0000
G0 X124.1988 Y17.1988
G0 Z4.0000
G1 X124.1988 Y17.1988 Z-1.5000 F150.00
G3 X122.4761 Y17.6124 Z-1.5000 I-1.1988 J-1.1988 F500.00
G3 X123.5239 Y14.3876 Z-1.5000 I0.5239 J-1.6124 F500.00
G3 X124.1988 Y17.1988 Z-1.5000 I-0.5239 J1.6124 F500.00
G1 X124.1988 Y17.1988 Z-4.0000 F150.00
G3 X122.4761 Y17.6124 Z-4.0000 I-1.1988 J-1.1988 F500.00
G3 X123.5239 Y14.3876 Z-4.0000 I0.5239 J-1.6124 F500.00
G3 X124.1988 Y17.1988 Z-4.0000 I-0.5239 J1.6124 F500.00
G1 X124.1988 Y17.1988 Z-5.0000 F150.00
G3 X122.4761 Y17.6124 Z-5.0000 I-1.1988 J-1.1988 F500.00
G3 X123.5239 Y14.3876 Z-5.0000 I0.5239 J-1.6124 F500.00
G3 X124.1988 Y17.1988 Z-5.0000 I-0.5239 J1.6124 F500.00
G0 Z6.0000
G0 X124.1988 Y47.1988
G0 Z4.0000
G1 X124.1988 Y47.1988 Z-1.5000 F150.00
G3 X122.4761 Y47.6124 Z-1.5000 I-1.1988 J-1.1988 F500.00
G3 X123.5239 Y44.3876 Z-1.5000 I0.5239 J-1.6124 F500.00
G3 X124.1988 Y47.1988 Z-1.5000 I-0.5239 J1.6124 F500.00
G1 X124.1988 Y47.1988 Z-4.0000 F150.00
G3 X122.4761 Y47.6124 Z-4.0000 I-1.1988 J-1.1988 F500.00
G3 X123.5239 Y44.3876 Z-4.0000 I0.5239 J-1.6124 F500.00
G3 X124.1988 Y47.1988 Z-4.0000 I-0.5239 J1.6124 F500.00
G1 X124.1988 Y47.1988 Z-5.0000 F150.00
G3 X122.4761 Y47.6124 Z-5.0000 I-1.1988 J-1.1988 F500.00
G3 X123.5239 Y44.3876 Z-5.0000 I0.5239 J-1.6124 F500.00
G3 X124.1988 Y47.1988 Z-5.0000 I-0.5239 J1.6124 F500.00
G0 Z6.0000
G0 X108.8438 Y64.3438
G0 Z4.0000
G1 X108.8438 Y64.3438 Z-1.5000 F150.00
G3 X107.6957 Y64.5983 Z-1.5000 I-0.7738 J-0.7738 F500.00
G3 X108.4443 Y62.5417 Z-1.5000 I0.3743 J-1.0283 F500.00
G3 X108.8438 Y64.3438 Z-1.5000 I-0.3743 J1.0283 F500.00
G1 X108.8438 Y64.3438 Z-4.0000 F150.00
G3 X107.6957 Y64.5983 Z-4.0000 I-0.7738 J-0.7738 F500.00
G3 X108.4443 Y62.5417 Z-4.0000 I0.3743 J-1.0283 F500.00
G3 X108.8438 Y64.3438 Z-4.0000 I-0.3743 J1.0283 F500.00
G1 X108.8438 Y64.3438 Z-5.0000 F150.00
G3 X107.6957 Y64.5983 Z-5.0000 I-0.7738 J-0.7738 F500.00
G3 X108.4443 Y62.5417 Z-5.0000 I0.3743 J-1.0283 F500.00
G3 X108.8438 Y64.3438 Z-5.0000 I-0.3743 J1.0283 F500.00
G0 Z6.0000
G0 X61.7038 Y64.3438
G0 Z4.0000
G1 X61.7038 Y64.3438 Z-1.5000 F150.00
G3 X59.9017 Y63.1957 Z-1.5000 I-0.7738 J-0.7738 F500.00
G3 X61.9583 Y63.9443 Z-1.5000 I1.0283 J0.3743 F500.00
G3 X61.7038 Y64.3438 Z-1.5000 I-1.0283 J-0.3743 F500.00
G1 X61.7038 Y64.3438 Z-4.0000 F150.00
G3 X59.9017 Y63.1957 Z-4.0000 I-0.7738 J-0.7738 F500.00
G3 X61.9583 Y63.9443 Z-4.0000 I1.0283 J0.3743 F500.00
G3 X61.7038 Y64.3438 Z-4.0000 I-1.0283 J-0.3743 F500.00
G1 X61.7038 Y64.3438 Z-5.0000 F150.00
G3 X59.9017 Y63.1957 Z-5.0000 I-0.7738 J-0.7738 F500.00
G3 X61.9583 Y63.9443 Z-5.0000 I1.0283 J0.3743 F500.00
G3 X61.7038 Y64.3438 Z-5.0000 I-1.0283 J-0.3743 F500.00
G0 Z6.0000
G0 X17.1988 Y17.1988
G0 Z4.0000
G1 X17.1988 Y17.1988 Z-1.5000 F150.00
G3 X14.3876 Y15.4761 Z-1.5000 I-1.1988 J-1.1988 F500.00
G3 X17.6124 Y16.5239 Z-1.5000 I1.6124 J0.5239 F500.00
G3 X17.1988 Y17.1988 Z-1.5000 I-1.6124 J-0.5239 F500.00
G1 X17.1988 Y17.1988 Z-4.0000 F150.00
G3 X14.3876 Y15.4761 Z-4.0000 I-1.1988 J-1.1988 F500.00
G3 X17.6124 Y16.5239 Z-4.0000 I1.6124 J0.5239 F500.00
G3 X17.1988 Y17.1988 Z-4.0000 I-1.6124 J-0.5239 F500.00
G1 X17.1988 Y17.1988 Z-5.0000 F150.00
G3 X14.3876 Y15.4761 Z-5.0000 I-1.1988 J-1.1988 F500.00
G3 X17.6124 Y16.5239 Z-5.0000 I1.6124 J0.5239 F500.00
G3 X17.1988 Y17.1988 Z-5.0000 I-1.6124 J-0.5239 F500.00
G0 Z6.0000
G0 X147.8522 Y47.5405
G0 Z4.0000
G1 X147.8522 Y47.5405 Z-1.5000 F150.00
G1 X167.8177 Y31.5087 Z-1.5000 F500.00
G2 X169.4958 Y28.1117 Z-1.5000 I-2.8330 J-3.5125 F500.00
G1 X169.5000 Y4.0000 Z-1.5000 F500.00
G2 X165.1177 Y-0.4954 Z-1.5000 I-4.5024 J0.0055 F500.00
G1 X4.0000 Y-0.5000 Z-1.5000 F500.00
G2 X-0.4954 Y3.8823 Z-1.5000 I0.0055 J4.5024 F500.00
G1 X-0.5000 Y28.0000 Z-1.5000 F500.00
G2 X1.0979 Y31.4355 Z-1.5000 I4.5126 J-0.0095 F500.00
G1 X53.4823 Y73.5087 Z-1.5000 F500.00
G2 X56.1986 Y74.4966 Z-1.5000 I2.8226 J-3.5327 F500.00
G1 X112.7000 Y74.5000 Z-1.5000 F500.00
G2 X115.4364 Y73.5695 Z-1.5000 I-0.0112 J-4.5218 F500.00
G1 X147.8522 Y47.5405 Z-1.5000 F500.00
G1 X147.8522 Y47.5405 Z-4.0000 F150.00
G1 X167.8177 Y31.5087 Z-4.0000 F500.00
G2 X169.4958 Y28.1117 Z-4.0000 I-2.8330 J-3.5125 F500.00
G1 X169.5000 Y4.0000 Z-4.0000 F500.00
G2 X165.1177 Y-0.4954 Z-4.0000 I-4.5024 J0.0055 F500.00
G1 X4.0000 Y-0.5000 Z-4.0000 F500.00
G2 X-0.4954 Y3.8823 Z-4.0000 I0.0055 J4.5024 F500.00
G1 X-0.5000 Y28.0000 Z-4.0000 F500.00
G2 X1.0979 Y31.4355 Z-4.0000 I4.5126 J-0.0095 F500.00
G1 X53.4823 Y73.5087 Z-4.0000 F500.00
G2 X56.1986 Y74.4966 Z-4.0000 I2.8226 J-3.5327 F500.00
G1 X112.7000 Y74.5000 Z-4.0000 F500.00
G2 X115.4364 Y73.5695 Z-4.0000 I-0.0112 J-4.5218 F500.00
G1 X147.8522 Y47.5405 Z-4.0000 F500.00
G1 X147.8522 Y47.5405 Z-5.0000 F150.00
G1 X167.8177 Y31.5087 Z-5.0000 F500.00
G2 X169.4958 Y28.1117 Z-5.0000 I-2.8330 J-3.5125 F500.00
G1 X169.5000 Y4.0000 Z-5.0000 F500.00
G2 X165.1177 Y-0.4954 Z-5.0000 I-4.5024 J0.0055 F500.00
G1 X4.0000 Y-0.5000 Z-5.0000 F500.00
G2 X-0.4954 Y3.8823 Z-5.0000 I0.0055 J4.5024 F500.00
G1 X-0.5000 Y28.0000 Z-5.0000 F500.00
G2 X1.0979 Y31.4355 Z-5.0000 I4.5126 J-0.0095 F500.00
G1 X53.4823 Y73.5087 Z-5.0000 F500.00
G2 X56.1986 Y74.4966 Z-5.0000 I2.8226 J-3.5327 F500.00
G1 X112.7000 Y74.5000 Z-5.0000 F500.00
G2 X115.4364 Y73.5695 Z-5.0000 I-0.0112 J-4.5218 F500.00
G1 X147.8522 Y47.5405 Z-5.0000 F500.00
G0 Z6.0000
(finish operation: Profile_Faces)
(begin postamble)
M5
G17 G90
; M2
