(Exported by FreeCAD)
(Post Processor: grbl_post)
(Output Time:2018-03-23 11:22:52.422785)
(begin preamble)
G17 G90
G21
(begin operation: Default Tool)
(Path: Default Tool)
(Default Tool)
(begin toolchange)
M6 T1
M3 S10000.0000
(finish operation: Default Tool)
(begin operation: Profile_Faces)
(Path: Profile_Faces)
(Profile_Faces)
(Compensated Tool Path. Diameter: 3.0)
G0 Z6.0000
G0 X61.7038 Y17.2038
G0 Z4.0000
G1 X61.7038 Y17.2038 Z-1.5000 F150.00
G3 X59.9017 Y16.0557 Z-1.5000 I-0.7738 J-0.7738 F500.00
G3 X61.9583 Y16.8043 Z-1.5000 I1.0283 J0.3743 F500.00
G3 X61.7038 Y17.2038 Z-1.5000 I-1.0283 J-0.3743 F500.00
G1 X61.7038 Y17.2038 Z-4.0000 F150.00
G3 X59.9017 Y16.0557 Z-4.0000 I-0.7738 J-0.7738 F500.00
G3 X61.9583 Y16.8043 Z-4.0000 I1.0283 J0.3743 F500.00
G3 X61.7038 Y17.2038 Z-4.0000 I-1.0283 J-0.3743 F500.00
G1 X61.7038 Y17.2038 Z-5.0000 F150.00
G3 X59.9017 Y16.0557 Z-5.0000 I-0.7738 J-0.7738 F500.00
G3 X61.9583 Y16.8043 Z-5.0000 I1.0283 J0.3743 F500.00
G3 X61.7038 Y17.2038 Z-5.0000 I-1.0283 J-0.3743 F500.00
G0 Z6.0000
G0 X69.0649 Y24.5649
G0 Z4.0000
G1 X69.0649 Y24.5649 Z-1.5000 F150.00
G3 X68.9541 Y24.5794 Z-1.5000 I-0.0649 J-0.0649 F500.00
G3 X68.9206 Y24.4541 Z-1.5000 I0.0459 J-0.0794 F500.00
G3 X69.0459 Y24.4206 Z-1.5000 I0.0794 J0.0459 F500.00
G3 X69.0649 Y24.5649 Z-1.5000 I-0.0459 J0.0794 F500.00
G1 X69.0649 Y24.5649 Z-4.0000 F150.00
G3 X68.9541 Y24.5794 Z-4.0000 I-0.0649 J-0.0649 F500.00
G3 X68.9206 Y24.4541 Z-4.0000 I0.0459 J-0.0794 F500.00
G3 X69.0459 Y24.4206 Z-4.0000 I0.0794 J0.0459 F500.00
G3 X69.0649 Y24.5649 Z-4.0000 I-0.0459 J0.0794 F500.00
G1 X69.0649 Y24.5649 Z-5.0000 F150.00
G3 X68.9541 Y24.5794 Z-5.0000 I-0.0649 J-0.0649 F500.00
G3 X68.9206 Y24.4541 Z-5.0000 I0.0459 J-0.0794 F500.00
G3 X69.0459 Y24.4206 Z-5.0000 I0.0794 J0.0459 F500.00
G3 X69.0649 Y24.5649 Z-5.0000 I-0.0459 J0.0794 F500.00
G0 Z6.0000
G0 X77.9706 Y33.4499
G0 Z4.0000
G1 X77.9706 Y33.4499 Z-1.5000 F150.00
G2 X75.8994 Y36.6011 Z-1.5000 I6.5201 J6.5416 F500.00
G3 X73.6690 Y37.6845 Z-1.5000 I-1.6218 J-0.5012 F500.00
G3 X73.7716 Y37.4976 Z-1.5000 I0.0929 J-0.0706 F500.00
G2 X75.6072 Y36.6537 Z-1.5000 I0.4433 J-1.4542 F500.00
G3 X81.1537 Y31.1072 Z-1.5000 I8.9154 J3.3689 F500.00
G2 X82.0037 Y29.2235 Z-1.5000 I-0.7056 J-1.4521 F500.00
G3 X82.2344 Y29.2491 Z-1.5000 I0.1122 J0.0413 F500.00
G3 X82.2226 Y30.2568 Z-1.5000 I-1.6582 J0.4844 F500.00
G3 X81.0941 Y31.4027 Z-1.5000 I-1.7037 J-0.5491 F500.00
G2 X77.9706 Y33.4499 Z-1.5000 I3.3966 J8.5888 F500.00
G1 X77.9706 Y33.4499 Z-4.0000 F150.00
G2 X75.8994 Y36.6011 Z-4.0000 I6.5201 J6.5416 F500.00
G3 X73.6690 Y37.6845 Z-4.0000 I-1.6218 J-0.5012 F500.00
G3 X73.7716 Y37.4976 Z-4.0000 I0.0929 J-0.0706 F500.00
G2 X75.6072 Y36.6537 Z-4.0000 I0.4433 J-1.4542 F500.00
G3 X81.1537 Y31.1072 Z-4.0000 I8.9154 J3.3689 F500.00
G2 X82.0037 Y29.2235 Z-4.0000 I-0.7056 J-1.4521 F500.00
G3 X82.2344 Y29.2491 Z-4.0000 I0.1122 J0.0413 F500.00
G3 X82.2226 Y30.2568 Z-4.0000 I-1.6582 J0.4844 F500.00
G3 X81.0941 Y31.4027 Z-4.0000 I-1.7037 J-0.5491 F500.00
G2 X77.9706 Y33.4499 Z-4.0000 I3.3966 J8.5888 F500.00
G1 X77.9706 Y33.4499 Z-5.0000 F150.00
G2 X75.8994 Y36.6011 Z-5.0000 I6.5201 J6.5416 F500.00
G3 X73.6690 Y37.6845 Z-5.0000 I-1.6218 J-0.5012 F500.00
G3 X73.7716 Y37.4976 Z-5.0000 I0.0929 J-0.0706 F500.00
G2 X75.6072 Y36.6537 Z-5.0000 I0.4433 J-1.4542 F500.00
G3 X81.1537 Y31.1072 Z-5.0000 I8.9154 J3.3689 F500.00
G2 X82.0037 Y29.2235 Z-5.0000 I-0.7056 J-1.4521 F500.00
G3 X82.2344 Y29.2491 Z-5.0000 I0.1122 J0.0413 F500.00
G3 X82.2226 Y30.2568 Z-5.0000 I-1.6582 J0.4844 F500.00
G3 X81.0941 Y31.4027 Z-5.0000 I-1.7037 J-0.5491 F500.00
G2 X77.9706 Y33.4499 Z-5.0000 I3.3966 J8.5888 F500.00
G0 Z6.0000
G0 X95.0948 Y25.0496
M6 T2
G0 Z4.0000
G1 X95.0948 Y25.0496 Z-1.5000 F150.00
G3 X92.1977 Y25.3512 Z-1.5000 I-1.6598 J-1.8786 F500.00
G2 X76.7999 Y25.3522 Z-1.5000 I-7.6979 J14.6412 F500.00
G3 X73.3787 Y24.3768 Z-1.5000 I-1.2342 J-2.1587 F500.00
G3 X74.2071 Y23.8788 Z-1.5000 I0.4637 J-0.1666 F500.00
G2 X76.2200 Y24.5252 Z-1.5000 I1.3460 J-0.7342 F500.00
G3 X86.6387 Y22.5815 Z-1.5000 I8.2805 J15.4906 F500.00
G3 X92.7800 Y24.5252 Z-1.5000 I-2.1478 J17.4605 F500.00
G2 X94.7929 Y23.8788 Z-1.5000 I0.6639 J-1.3902 F500.00
G3 X95.5705 Y24.4840 Z-1.5000 I0.3648 J0.3334 F500.00
G3 X95.0948 Y25.0496 Z-1.5000 I-2.1355 J-1.3130 F500.00
G1 X95.0948 Y25.0496 Z-4.0000 F150.00
G3 X92.1977 Y25.3512 Z-4.0000 I-1.6598 J-1.8786 F500.00
G2 X76.7999 Y25.3522 Z-4.0000 I-7.6979 J14.6412 F500.00
G3 X73.3787 Y24.3768 Z-4.0000 I-1.2342 J-2.1587 F500.00
G3 X74.2071 Y23.8788 Z-4.0000 I0.4637 J-0.1666 F500.00
G2 X76.2200 Y24.5252 Z-4.0000 I1.3460 J-0.7342 F500.00
G3 X86.6387 Y22.5815 Z-4.0000 I8.2805 J15.4906 F500.00
G3 X92.7800 Y24.5252 Z-4.0000 I-2.1478 J17.4605 F500.00
G2 X94.7929 Y23.8788 Z-4.0000 I0.6639 J-1.3902 F500.00
G3 X95.5705 Y24.4840 Z-4.0000 I0.3648 J0.3334 F500.00
G3 X95.0948 Y25.0496 Z-4.0000 I-2.1355 J-1.3130 F500.00
G1 X95.0948 Y25.0496 Z-5.0000 F150.00
G3 X92.1977 Y25.3512 Z-5.0000 I-1.6598 J-1.8786 F500.00
G2 X76.7999 Y25.3522 Z-5.0000 I-7.6979 J14.6412 F500.00
G3 X73.3787 Y24.3768 Z-5.0000 I-1.2342 J-2.1587 F500.00
G3 X74.2071 Y23.8788 Z-5.0000 I0.4637 J-0.1666 F500.00
G2 X76.2200 Y24.5252 Z-5.0000 I1.3460 J-0.7342 F500.00
G3 X86.6387 Y22.5815 Z-5.0000 I8.2805 J15.4906 F500.00
G3 X92.7800 Y24.5252 Z-5.0000 I-2.1478 J17.4605 F500.00
G2 X94.7929 Y23.8788 Z-5.0000 I0.6639 J-1.3902 F500.00
G3 X95.5705 Y24.4840 Z-5.0000 I0.3648 J0.3334 F500.00
G3 X95.0948 Y25.0496 Z-5.0000 I-2.1355 J-1.3130 F500.00
G0 Z6.0000
(finish operation: Profile_Faces)
(begin postamble)
M5
G17 G90
M2
